!!!COM: Haydn, Franz Joseph
!!!OTL: String Quartet in B-flat Major
!!!OPS: Opus 50
!!!ONM: No. 1
!!!OMD: Adagio non lento
!!!OMV: 2
!!!SCT: H III:44
!!!SCA: Thematisch-bibliographisches Werkevererzeichnis (A. van Hoboken)
!!!YOR: Richault Edition, volume 6
!!!ENC: Frances Bennion
!!!CDT: 1732/3/31/-1809/5/31/
!!!CNT: Oesterreich
!!!YEC: Copyright (c) 1994, 2000 Center for Computer Assisted Research in the Humanities
!!!YEM: Rights to all derivative editions reserved.
!!!YEM: Refer to licensing agreement for further details.
!!!YEN: United States of America
**kern	**kern	**kern	**kern
*k[b-e-a-]	*k[b-e-a-]	*k[b-e-a-]	*k[b-e-a-]
*E-:	*E-:	*E-:	*E-:
*clefF4	*clefC3	*clefF	*clefF
*M6/8	*M6/8	*M6/8	*M6/8
2r	2r	2r	2r
8r	8r	8r	8r
8r	8r	8r	8B-
=1	=1	=1	=1
4E-	4B-	4e- 4G	4e-
8E-	8G	8g 8B-	8g
4E-	4E-	4g 4B-	4b-
8E-	8e-	8g 8B-	32a
.	.	.	32b-
.	.	.	32cc
.	.	.	32b-
=2	=2	=2	=2
4F	4d	4a- 4B-	8b-
.	.	.	8d
8F	8f	8a- 8B-	8d
4F	4A-	4a- 4B-	8d
.	.	.	8r
8r	8r	8r	8B-
=3	=3	=3	=3
4D	4f	4B- 4a-	4f
8D	8f	8B- 8a-	8a-
4D	4f	4a- 4B-	4cc
8D	8f	8a- 8B-	32b-
.	.	.	32a-
.	.	.	32g
.	.	.	32f
=4	=4	=4	=4
4E-	4e-	4g 4B-	8g
.	.	.	8b-
8E-	8B-	8B- 8g	8b-
4E-	8G	4g 4B-	8b-
.	8r	.	8r
8G	8B-	8r	8ee-
=5	=5	=5	=5
4A-	8f	2.B-	8dd
.	8d	.	8b-
8G	8e-	.	8ee-
4D	8f	.	8a-
.	8A-	.	8f
8E-	8G	.	8g
=6	=6	=6	=6
4AA-	4F	4.c	8cc
.	.	.	8a-
8AA	8c	.	8f
4BB-	8G	4B-	8e-
.	8F	.	8d
8r	8r	8r	8ff
=7	=7	=7	=7
2.r	8B-	8d	4a-
.	8c	8e-	.
.	8d	8f	16a-
.	.	.	32g
.	.	.	32a-
.	8e-	8g	8g
.	4r	4r	8e-
.	.	.	8gg
=8	=8	=8	=8
8C	8e-	8g	8ee-
8E-	8g	8e-	8cc
8F	8e-	8c	8a
8D	8f	8B-	8b-
8BB-	8r	8r	8r
8r	8g	8b-	[8ee-
=9	=9	=9	=9
2r	4f	4a-	8ee-]
.	.	.	8dd
.	8e-	8g	4cc
.	4d	4f	.
8r	.	.	8b-
8C	8c	8e-	[8a-
=10	=10	=10	=10
4BB-	4B-	4d	8a-]
.	.	.	8g
8AA-	8B-	8d	8f
8GG	8B-	8e-	8b-
4r	4r	4r	8r
.	.	.	8ee-
=11	=11	=11	=11
4AA-	4c	4e-	8f
.	.	.	8r
8r	8r	8r	8cc
4AA	4c	4g-	8e-
.	.	.	8r
8r	8r	8r	8g-
=12	=12	=12	=12
4.BB-	4.F	4.A-	8B-
.	.	.	8c
.	.	.	8d
8EE-	8E-	8G	8e-
4r	4r	8r	4r
.	.	8B-	.
=13	=13	=13	=13
4E-	4B- 4g	4e-	2.r
8E-	8g 8B-	8g	.
4E-	4B- 4g	4b-	.
8E-	8g 8B-	32a	.
.	.	32b-	.
.	.	32cc	.
.	.	32b-	.
=14	=14	=14	=14
4F	4a- 4B-	8b-	8r
.	.	8d	8r
8F	8a- 8B-	8d	32aa
.	.	.	32bb-
.	.	.	32ccc
.	.	.	32bb-
4F	4a- 4B-	8d	8bb-
.	.	8r	8dd
8r	8r	8B-	8dd
=15	=15	=15	=15
4D	4a- 4B-	4f	4dd
8D	8a- 8B-	8a-	8r
4D	4a- 4B-	4cc	32d
.	.	.	32e-
.	.	.	32f
.	.	.	32g
.	.	.	32a-
.	.	.	32b-
.	.	.	32cc
.	.	.	32dd
8D	8B- 8f	32b-	32ee-
.	.	32a-	32ff
.	.	32g	32gg
.	.	32f	32aa-
=16	=16	=16	=16
4E-	4B- 4g	8g	4gg
.	.	8b-	.
8E-	8B- 8g	8b-	4.r
4E-	4g 4B-	8b-	.
.	.	8r	.
8G	8B-	8ee-	32aa
.	.	.	32bb-
.	.	.	32ccc
.	.	.	32bb-
=17	=17	=17	=17
4A-	8f	8dd	8bb-
.	8d	8b-	8r
8G	8B-	8ee-	32aa
.	.	.	32bb-
.	.	.	32ccc
.	.	.	32bb-
4D	8f	8a-	8bb-
.	8a-	8f	8r
8E-	8g	8g	32aa
.	.	.	32bb-
.	.	.	32ccc
.	.	.	32bb-
=18	=18	=18	=18
4AA-	4f	32b	32bb
.	.	32cc	32ccc
.	.	32b	32bb
.	.	32cc	32ccc
.	.	32b-	32bb-
.	.	32a-	32aa-
.	.	32g	32gg
.	.	32f	32ff
8AA-	16c	32e	32ee
.	.	32f	32ff
.	16A-	32a-	32aa-
.	.	32f	32ff
4BB-	8G	8e-	8ee-
.	8F	8d	8dd
8r	8r	8ff	8r
=19	=19	=19	=19
4D	4f 4B-	4a-	32B-
.	.	.	32c
.	.	.	32d
.	.	.	32e-
.	.	.	32f
.	.	.	32g
.	.	.	32a-
.	.	.	32b-
8D	8f 8B-	16a-	32cc
.	.	.	32dd
.	.	32g	32ee-
.	.	32a-	32ff
4E-	4g 4B-	8g	8gg
.	.	8e-	4r
8r	8r	8gg	.
=20	=20	=20	=20
4F	4A	8ee-	32f
.	.	.	32g
.	.	.	32a
.	.	.	32b-
.	.	8cc	32cc
.	.	.	32dd
.	.	.	32ee-
.	.	.	32ff
8F	8e-	8a	32gg
.	.	.	32aa
.	.	.	32bb-
.	.	.	32ccc
8BB-	8d	8b-	8bb-
8r	8r	8r	4r
8g	8b-	32ee-	.
.	.	32gg	.
.	.	32ff	.
.	.	32ee-	.
=21	=21	=21	=21
4f	4a-	8ee-	2.r
.	.	8dd	.
8e-	8g	32cc	.
.	.	32ee-	.
.	.	32dd	.
.	.	32cc	.
4d	4f	8cc	.
.	.	8b-	.
8c	8e-	32a-	.
.	.	32cc	.
.	.	32b-	.
.	.	32a-	.
=22	=22	=22	=22
4B-	4d	8a-	8r
.	.	8g	8r
8A-	8B-	8f	8d
8G	8B-	8b-	8e-
4r	4r	16r	4r
.	.	16dd	.
.	.	16ff	.
.	.	16ee-	.
=23	=23	=23	=23
8AA-	8c	8f	8e-
4r	4r	16r	4r
.	.	16b	.
.	.	16dd	.
.	.	16cc	.
8AA	8c	8e-	8g-
4r	4r	16r	4r
.	.	32d	.
.	.	32e-	.
.	.	32d	.
.	.	32e-	.
.	.	32g-	.
.	.	32e-	.
=24	=24	=24	=24
4.BB-	4.F	8B-	4.A-
.	.	8c	.
.	.	8d	.
8EE-	8G	8e-	8G
4r	4r	4r	8r
.	.	.	8b-
=25	=25	=25	=25
4E-	16r	16r	4ee-
.	16B-	16g-	.
.	16B-	16g-	.
.	16B-	16g-	.
8E-	16r	16r	8gg-
.	16B-	16g-	.
4E-	16r	16r	4bb-
.	16B-	16g-	.
.	16B-	16g-	.
.	16B-	16g-	.
8E-	16r	16r	32aa
.	.	.	32bb-
.	16B-	16g-	32ccc-
.	.	.	32bb-
=26	=26	=26	=26
4F	16r	16r	8bb-
.	16B-	16a-	.
.	16B-	16a-	8dd
.	16B-	16a-	.
8F	16r	16r	8dd
.	16B-	16a-	.
4F	16r	16r	8dd
.	16B-	16a-	.
.	16B-	16a-	8r
.	16B-	16a-	.
8F	16r	16r	8b-
.	16B-	16a-	.
=27	=27	=27	=27
4D	16r	16r	4ff
.	16B-	16a-	.
.	16B-	16a-	.
.	16B-	16a-	.
8D	16r	16r	8aa-
.	16B-	16a-	.
4D	16r	16r	4ccc-
.	16f	16a-	.
.	16f	16a-	.
.	16f	16a-	.
8D	16r	16r	32bb-
.	.	.	32aa-
.	16B-	16a-	32gg-
.	.	.	32ff
=28	=28	=28	=28
4E-	16r	16r	8gg-
.	16B-	16g-	.
.	16B-	16g-	8bb-
.	16B-	16g-	.
8E-	16r	16r	8bb-
.	16B-	16g-	.
4E-	16r	16r	8bb-
.	16B-	16g-	.
.	16B-	16g-	8r
.	16B-	16g-	.
8G-	16r	32r	8eee-
.	.	32e-	.
.	16B-	32b-	.
.	.	32e-	.
=29	=29	=29	=29
4A-	16r	32r	8ddd
.	.	32d	.
.	16B-	32f	.
.	.	32d	.
.	16B-	32b-	8bb-
.	.	32d	.
.	16B-	32f	.
.	.	32d	.
8G-	16r	32r	8eee-
.	.	32e-	.
.	16B-	32b-	.
.	.	32e-	.
4A-	16r	32r	8ddd
.	.	32d	.
.	16B-	32f	.
.	.	32d	.
.	16B-	32b-	8bb-
.	.	32d	.
.	16B-	32f	.
.	.	32d	.
8G-	16r	32r	8eee-
.	.	32e-	.
.	16B-	32b-	.
.	.	32e-	.
=30	=30	=30	=30
8C-	16r	32r	8ggg-
.	.	32e-	.
.	16A	32a	.
.	.	32e-	.
8c-	16A	32r	8eee-
.	.	32e-	.
.	16A	32a	.
.	.	32e-	.
8c-	16r	32r	8aa
.	.	32e-	.
.	16e-	32a	.
.	.	32e-	.
8B-	8d	8d	8bb-
8BB-	8B-	8b-	8r
8r	8r	8r	32bb-
.	.	.	32aa-
.	.	.	32bb-
.	.	.	32ccc-
=31	=31	=31	=31
4G-	16r	16r	8ddd-
.	16B-	16d-	.
.	16B-	16d-	8bb-
.	16B-	16d-	.
8G-	16r	16r	8gg-
.	16B-	16d-	.
4A-	16r	16r	16.ff
.	16c-	16d-	.
.	.	.	32gg-
.	16c-	16d-	32ff
.	.	.	32gg-
.	16c-	16d-	32aa-
.	.	.	32gg-
8A-	16r	16r	32bb-
.	.	.	32aa-
.	16c-	16d-	32ccc-
.	.	.	32bb-
=32	=32	=32	=32
4D-	16r	16r	16ddd-
.	16c-	16f	16ccc-
.	16c-	16f	16bb-
.	16c-	16f	16aa-
8D-	16r	16r	16gg-
.	16c-	16a-	16ff
4G-	16r	16r	8.gg-
.	16B-	16d-	.
.	16B-	16d-	.
.	16B-	16d-	16aa-
8G-	16r	16r	32bb-
.	.	.	32ccc-
.	16B-	16d-	32bb-
.	.	.	32ccc-
=33	=33	=33	=33
4F	16r	16r	8bb-
.	16A-	16d	.
.	16A-	16d	8dd
.	16A-	16d	.
8F	16r	16r	32bb-
.	.	.	32ccc-
.	16A-	16d	32bb-
.	.	.	32ccc-
4E-	16r	16r	8bb-
.	16G-	16e-	.
.	16G-	16e-	8ee-
.	16G-	16e-	.
8E-	16r	16r	32bb-
.	.	.	32ccc-
.	16G-	16e-	32bb-
.	.	.	32ccc-
=34	=34	=34	=34
4D-	16r	16r	8ddd-
.	16B-	16e- 16G	.
.	16B-	16G 16e-	8bb-
.	16B-	16G 16e-	.
8D-	16r	16r	8gg
.	16B-	16e- 16G	.
4C-	16r	16r	8.aa-
.	16A-	16e- 16A-	.
.	16A-	16A- 16e-	.
.	16A-	16e- 16A-	32ddd-
.	.	.	32ccc-
8AA-	16r	16r	32bb-
.	.	.	32aa-
.	16A-	16a-	32gg-
.	.	.	32ff
=35	=35	=35	=35
4BB-	16r	16r	8.ee-
.	16B-	16g-	.
.	16B-	16g-	.
.	16B-	16g-	16ff
8BB-	16r	16r	8dd
.	16A-	16f	.
8E-	8G-	8e-	8ee-
8EE-	4r	8r	8r
8r	.	8r	8B-
=36	=36	=36	=36
32r	4E-	4e- 4G	4e-
32E-	.	.	.
32D	.	.	.
32E-	.	.	.
32G	.	.	.
32E-	.	.	.
32D	.	.	.
32E-	.	.	.
32BB-	8e-	8B- 8g	8g
32E-	.	.	.
32GG	.	.	.
32BB-	.	.	.
32EE-	4e-	4B- 4g	4b-
32E-	.	.	.
32F	.	.	.
32G	.	.	.
32A-	.	.	.
32B-	.	.	.
32c	.	.	.
32d	.	.	.
16e-	8e-	8g 8B-	32a
.	.	.	32b-
16e-	.	.	32cc
.	.	.	32b-
=37	=37	=37	=37
8f	8d	8a-	8b-
8a-	8B-	8f	8d
8a-	8B-	8f	8d
8a-	8B-	8f	8d
4r	4r	4r	8r
.	.	.	8B-
=38	=38	=38	=38
32BB-	4B-	4d	4f
32B-	.	.	.
32A	.	.	.
32B-	.	.	.
32d	.	.	.
32B-	.	.	.
32A	.	.	.
32B-	.	.	.
32F	8f	8f	8a-
32B-	.	.	.
32D	.	.	.
32F	.	.	.
32BB-	4d	4a-	4cc
32C	.	.	.
32D	.	.	.
32E-	.	.	.
32F	.	.	.
32G	.	.	.
32A-	.	.	.
32B-	.	.	.
16c	8B-	8f	32b-
.	.	.	32a-
16d	.	.	32g
.	.	.	32f
=39	=39	=39	=39
8e-	8E-	8g	8g
8g	8E-	8e-	8b-
8g	8E-	8B-	8b-
8g	8E-	8G	8b-
8r	4r	8r	8r
32GG	.	8B-	8ee-
32BB-	.	.	.
32GG	.	.	.
32BB-	.	.	.
=40	=40	=40	=40
32AA-	4f	2.B-	8dd
32BB-	.	.	.
32AA-	.	.	.
32BB-	.	.	.
32AA-	.	.	8b-
32BB-	.	.	.
32AA-	.	.	.
32BB-	.	.	.
32GG	8e-	.	8ee-
32BB-	.	.	.
32GG	.	.	.
32BB-	.	.	.
32DD	4f	.	8a-
32BB-	.	.	.
32DD	.	.	.
32BB-	.	.	.
32DD	.	.	8f
32BB-	.	.	.
32DD	.	.	.
32BB-	.	.	.
32EE-	8e-	.	8g
32BB-	.	.	.
32EE-	.	.	.
32BB-	.	.	.
=41	=41	=41	=41
4.AA-	4c	4.c	32e
.	.	.	32f
.	.	.	32g
.	.	.	32f
.	.	.	32a-
.	.	.	32g
.	.	.	32b-
.	.	.	32a-
.	8A-	.	32b
.	.	.	32cc
.	.	.	32a-
.	.	.	32f
4BB-	8G	4B-	8e-
.	8F	.	8d
8r	8r	8r	8ff
=42	=42	=42	=42
32BB-	4f	4d	4a-
32AA	.	.	.
32BB-	.	.	.
32C	.	.	.
32D	.	.	.
32E-	.	.	.
32F	.	.	.
32G	.	.	.
32A-	8d	8f	16a-
32B-	.	.	.
32c	.	.	32g
32d	.	.	32a-
8e-	8e-	8B-	8g
4r	4r	4r	8e-
.	.	.	8gg
=43	=43	=43	=43
32r	4C	8g	8ee-
32CC	.	.	.
32DD	.	.	.
32EE-	.	.	.
32FF	.	8e-	8cc
32GG	.	.	.
32AA	.	.	.
32BB-	.	.	.
32C	8F	8c	8a
32D	.	.	.
32E-	.	.	.
32F	.	.	.
8D	8F	8d	8b-
8BB-	8r	8r	8r
8r	8g	8b-	32ee-
.	.	.	32bb-
.	.	.	32gg
.	.	.	32ee-
=44	=44	=44	=44
2r	4f	4a-	16ee-
.	.	.	16dd
.	.	.	16dd
.	.	.	16dd
.	8e-	8g	32cc
.	.	.	32gg
.	.	.	32ee-
.	.	.	32cc
.	4d	4f	16cc
.	.	.	16b
8r	.	.	16b-
.	.	.	16b-
8C	8c	8e-	32a-
.	.	.	32ee-
.	.	.	32cc
.	.	.	32a-
=45	=45	=45	=45
4BB-	4B-	4d	16a-
.	.	.	16g
.	.	.	16g
.	.	.	16f
8AA-	8B-	8d	32f
.	.	.	32a-
.	.	.	32g
.	.	.	32f
8GG	8B-	8e-	8b-
4r	4r	4r	16r
.	.	.	32dd
.	.	.	32ee-
.	.	.	32dd
.	.	.	32ee-
.	.	.	32dd
.	.	.	32ee-
=46	=46	=46	=46
8AA-	8c	8e-	8f
4r	4r	4r	16r
.	.	.	32b
.	.	.	32cc
.	.	.	32b
.	.	.	32cc
.	.	.	32b
.	.	.	32cc
8AA	8c	8g-	8e-
16r	16r	16r	16r
32F	32f	32f	32f
32G-	32g-	32g-	32g-
32F	32f	32f	32f
32G-	32g-	32g-	32g-
32F	32f	32f	32f
32G-	32g-	32g-	32g-
=47	=47	=47	=47
4.BB-	8B-	4.A-	8B-
.	8A-	.	8c
.	8F	.	8d
8EE-	8E-	8G	8e-
8r	8r	8r	8r
8g	8b-	32ee-	8bb-
.	.	32gg	.
.	.	32ff	.
.	.	32ee-	.
=48	=48	=48	=48
4f	4b-	8ee-	[2bb-
.	.	8dd	.
8a-	32dd	32ff	.
.	32ff	32aa-	.
.	32ee-	32gg	.
.	32dd	32ff	.
4g	8dd	8ff	.
.	8ee-	8gg	8bb-]
8g	8b-	8b-	32bb-
.	.	.	32ccc
.	.	.	32ddd
.	.	.	32eee-
=49	=49	=49	=49
8.f	8.b-	8.a-	8eee-
.	.	.	16ddd
16e-	16b-	16g	16eee-
16d	16b-	16f	16fff
16c	16b-	16e-	16ggg
8B-	8b-	8d	8aaa-
8r	8r	8r	8r
8E-	8e-	8b-	8ggg
=50	=50	=50	=50
8A-	8a-	8cc	8fff
8r	8r	8r	8r
8A	4f	8cc	8eee-
8B-	.	8b-	8ddd
8r	8r	8r	8r
8BB-	8d	8b-	8bb-
=51	=51	=51	=51
2.BB-	32e	4.cc	4bb-
.	32g	.	.
.	32f	.	.
.	32e	.	.
.	32cc	.	.
.	32g	.	.
.	32f	.	.
.	32e	.	.
.	32f	.	8aa-
.	32a-	.	.
.	32f	.	.
.	32e-	.	.
.	32d	4.b-	4aa-
.	32f	.	.
.	32e-	.	.
.	32d	.	.
.	32b-	.	.
.	32f	.	.
.	32e-	.	.
.	32d	.	.
.	32e-	.	8gg
.	32g	.	.
.	32e-	.	.
.	32d	.	.
=52	=52	=52	=52
2.BB-	32c	4.a-	4gg
.	32e-	.	.
.	32d	.	.
.	32c	.	.
.	32a-	.	.
.	32e-	.	.
.	32d	.	.
.	32c	.	.
.	32d	.	8ff
.	32f	.	.
.	32e-	.	.
.	32d	.	.
.	32c	4.g	4ff
.	32d	.	.
.	32e-	.	.
.	32d	.	.
.	32e-	.	.
.	32f	.	.
.	32g	.	.
.	32f	.	.
.	32e-	.	8ee-
.	32d	.	.
.	32c	.	.
.	32B-	.	.
=53	=53	=53	=53
2.BB-	2.A	2.e- 2.c	32ee-
.	.	.	32dd
.	.	.	32ff
.	.	.	32ee-
.	.	.	32gg
.	.	.	32ff
.	.	.	32ee-
.	.	.	32dd
.	.	.	32cc
.	.	.	32b-
.	.	.	32a
.	.	.	32cc
.	.	.	32ee-
.	.	.	32dd
.	.	.	32cc
.	.	.	32b-
.	.	.	32a
.	.	.	32g
.	.	.	32f
.	.	.	32e-
.	.	.	32d
.	.	.	32c
.	.	.	32B-
.	.	.	32A
=54	=54	=54	=54
32BB-	32B-	32B-	32B-
32AA	32A	32A	32A
32C	32c	32c	32c
32BB-	32B-	32B-	32B-
32D	32d	32d	32d
32C	32c	32c	32c
32E-	32e-	32e-	32e-
32D	32d	32d	32d
32F	32f	32f	32f
32E-	32e-	32e-	32e-
32G	32g	32g	32g
32F	32f	32f	32f
32A-	32a-	32a-	32a-
32B-	32b-	32b-	32b-
32c	32cc	32cc	32cc
32B-	32b-	32b-	32b-
32A-	32a-	32a-	32a-
32B-	32b-	32b-	32b-
32G	32g	32g	32g
32A-	32a-	32a-	32a-
32F	32f	32f	32f
32G	32g	32g	32g
32E-	32e-	32e-	32e-
32F	32f	32f	32f
=55	=55	=55	=55
8D	8d	8d	16d
.	.	.	16f
2r	2r	2r	16a-
.	.	.	16b-
.	.	.	16dd
.	.	.	16ff
.	.	.	8aa-
.	.	.	8ff
8r	8r	8r	8dd
=56	=56	=56	=56
4.r	4.r	4.r	8cc-
.	.	.	8a-
.	.	.	8f
4AA-	4F	4B-	4d
8GG	8B-	[8e-	8ee-
=57	=57	=57	=57
8AA-	8c	8e-]	8f
4r	4r	4r	8r
.	.	.	8cc
8AA	8c	8g-	8e-
4r	4r	4r	8r
.	.	.	8g-
=58	=58	=58	=58
4.BB-	4.F	4.A-	8B-
.	.	.	8c
.	.	.	8d
8EE-	8G	8G	8e-
4r	4r	4r	16r
.	.	.	32dd
.	.	.	32ee-
.	.	.	16ee-
.	.	.	32dd
.	.	.	32cc
=59	=59	=59	=59
4.BB-	8D	8B-	[4b-
.	8E-	8c	.
.	8F	8d	32b-]
.	.	.	32cc
.	.	.	32b-
.	.	.	32a-
8E-	8G	8e-	8g
4r	4r	4r	16r
.	.	.	32dd
.	.	.	32ee-
.	.	.	16ee-
.	.	.	32dd
.	.	.	32cc
=60	=60	=60	=60
4.BB-	8D	8B-	4b-
.	8E-	8c	.
.	8F	8d	32b-
.	.	.	32a-
.	.	.	32g
.	.	.	32f
8E-	8G	8e-	8e-
8r	8r	8r	8r
32EE-	8B-	8B-	8g
32DD	.	.	.
32EE-	.	.	.
32DD	.	.	.
=61	=61	=61	=61
8EE-	8B-	8G	8e-
8EE-	8B-	8G	8e-
8EE-	8B-	8G	8e-
8EE-	8B-	8G	8e-
4r	4r	4r	4r
==	==	==	==
*-	*-	*-	*-
!!!RWG1: This file contains only pitch and duration data.
!!!RWG2: Transposing instruments are not transposed.
!!!RWG3: Spines may have incompatible meters.
!!!RWG4: Durations of rests and tied notes may be interpreted.
!!!RWG: Key is interpreted using the Humdrum key tool.
!!!GTL: 6 Quartetti ("Prussian")
!!!AFT: stage1
!!!END: 1997/04/15
!!!KEY: 3357550176
!!!EMD: Converted from MuseData to Humdrum Dec 16, 2000, by Andreas Kornstaedt using muse2kern.
!!!EMD: Manual editing by Craig Sapp, Nov 2001
